X:2269
T:All ye that are to mirth inclined (Carol?)
C:Traditional
O:Isle of Man
Z:Clague collection
B:Kiaull Vannin #269 
N:See also KV267,275,385
M:3/4 
L:1/8 
K:D 
FBA|B2 AG FE|F3 cd e/d/|c2 dB AB|c3f ed|c2 dB AB/G/|F2 ^G2 ED|DE Bd cc|B3|| 

